src/assets/flags/tf.svg

<?xml version="1.0" encoding="UTF-8"?>
<svg xmlns="http://www.w3.org/2000/svg" xmlns:xlink="http://www.w3.org/1999/xlink" width="25px" height="px" viewBox="0 0 25 19" version="1.1">
<g id="surface1">
<rect x="0" y="0" width="25" height="19" style="fill:rgb(0%,13.725491%,58.431375%);fill-opacity:1;stroke:none;"/>
<path style=" stroke:none;fill-rule:nonzero;fill:rgb(100%,100%,100%);fill-opacity:1;" d="M 0 0 L 11.4375 0 L 11.4375 7.789062 L 0 7.789062 Z M 0 0 "/>
<path style=" stroke:none;fill-rule:nonzero;fill:rgb(0%,13.725491%,58.431375%);fill-opacity:1;" d="M 0 0 L 3.75 0 L 3.75 7.601562 L 0 7.601562 Z M 0 0 "/>
<path style=" stroke:none;fill-rule:nonzero;fill:rgb(92.941177%,16.078432%,22.352941%);fill-opacity:1;" d="M 7.5 0 L 11.25 0 L 11.25 7.601562 L 7.5 7.601562 Z M 7.5 0 "/>
<path style=" stroke:none;fill-rule:nonzero;fill:rgb(100%,100%,100%);fill-opacity:1;" d="M 16.640625 8.691406 L 17.242188 9.667969 L 18.960938 9.667969 L 18.960938 13.0625 L 17.671875 11.019531 L 15.9375 13.824219 L 16.78125 13.824219 L 17.671875 12.207031 L 19.5 15.53125 L 21.328125 12.207031 L 22.21875 13.824219 L 23.0625 13.824219 L 21.328125 11.019531 L 20.039062 13.0625 L 20.039062 11.1875 L 20.8125 11.1875 L 21.386719 10.261719 L 20.039062 10.261719 L 20.039062 9.667969 L 21.757812 9.667969 L 22.359375 8.691406 Z M 18.65625 12.847656 L 16.78125 12.847656 L 16.78125 13.515625 L 18.65625 13.515625 Z M 22.21875 12.847656 L 20.34375 12.847656 L 20.34375 13.515625 L 22.21875 13.515625 Z M 22.21875 12.847656 "/>
<path style=" stroke:none;fill-rule:nonzero;fill:rgb(100%,100%,100%);fill-opacity:1;" d="M 19.5 16.199219 L 20.078125 18.003906 L 18.5625 16.886719 L 20.4375 16.886719 L 18.921875 18.003906 Z M 19.5 16.199219 "/>
<path style=" stroke:none;fill-rule:nonzero;fill:rgb(100%,100%,100%);fill-opacity:1;" d="M 17.390625 14.582031 L 17.96875 16.386719 L 16.453125 15.269531 L 18.328125 15.269531 L 16.8125 16.386719 Z M 17.390625 14.582031 "/>
<path style=" stroke:none;fill-rule:nonzero;fill:rgb(100%,100%,100%);fill-opacity:1;" d="M 21.609375 14.582031 L 22.1875 16.386719 L 20.671875 15.269531 L 22.546875 15.269531 L 21.03125 16.386719 Z M 21.609375 14.582031 "/>
<path style=" stroke:none;fill-rule:nonzero;fill:rgb(100%,100%,100%);fill-opacity:1;" d="M 15.609375 9.785156 L 16.1875 11.589844 L 14.671875 10.472656 L 16.546875 10.472656 L 15.03125 11.589844 Z M 15.609375 9.785156 "/>
<path style=" stroke:none;fill-rule:nonzero;fill:rgb(100%,100%,100%);fill-opacity:1;" d="M 23.390625 9.785156 L 23.96875 11.589844 L 22.453125 10.472656 L 24.328125 10.472656 L 22.8125 11.589844 Z M 23.390625 9.785156 "/>
</g>
</svg>

<svg xmlns="http://www.w3.org/2000/svg" width="25" height="px" viewBox="0 0 25 19"><path d="M0 0h25v19H0z" style="fill:#002395;fill-opacity:1;stroke:none"/><path d="M0 0h11.438v7.79H0Zm0 0" style="stroke:none;fill-rule:nonzero;fill:#fff;fill-opacity:1"/><path d="M0 0h3.75v7.602H0Zm0 0" style="stroke:none;fill-rule:nonzero;fill:#002395;fill-opacity:1"/><path d="M7.5 0h3.75v7.602H7.5Zm0 0" style="stroke:none;fill-rule:nonzero;fill:#ed2939;fill-opacity:1"/><path d="m16.64 8.691.602.977h1.719v3.395l-1.29-2.043-1.733 2.804h.843l.89-1.617 1.829 3.324 1.828-3.324.89 1.617h.845l-1.735-2.804-1.289 2.043v-1.876h.773l.575-.925h-1.348v-.594h1.719l.601-.977Zm2.016 4.157h-1.875v.668h1.875Zm3.563 0h-1.875v.668h1.875ZM19.5 16.2l.578 1.804-1.515-1.117h1.875l-1.516 1.117ZM17.39 14.582l.579 1.805-1.516-1.117h1.875l-1.515 1.117ZM21.61 14.582l.578 1.805-1.516-1.117h1.875l-1.516 1.117Zm0 0" style="stroke:none;fill-rule:nonzero;fill:#fff;fill-opacity:1"/><path d="m15.61 9.785.578 1.805-1.516-1.117h1.875L15.03 11.59ZM23.39 9.785l.579 1.805-1.516-1.117h1.875l-1.515 1.117Zm0 0" style="stroke:none;fill-rule:nonzero;fill:#fff;fill-opacity:1"/></svg>
